!!!COM: Fux, Johann Joseph
!!!OMD: Gradus ad Parnassum Exercise
!!!YEC: CC0 1.0 Universal (Public Domain). Mark Gotham and FourScoreAndMore.org waive all rights to this document.
**kern	**kern	**kern
*part3	*part2	*part1
*staff3	*staff2	*staff1
*I"3	*I"2	*I"1
*I'Pno	*I'Pno	*I'Pno
!!LO:LB:g=z
*clefF4	*clefGv2	*clefG2
*k[]	*k[]	*k[]
!!LO:TX:omd:t=
*M4/4	*M4/4	*M4/4
=54	=54	=54
!	!	!LO:TX:a:t=Fig. 109; Species&colon; 1; Modal final&colon; e; Cantus firmus&colon; 3
1E	1B	1g
=55	=55	=55
1C	1c	1e
=56	=56	=56
1D	1A	1f
=57	=57	=57
1C	1A	1e
=58	=58	=58
1AA	1c	1e
=59	=59	=59
1A	1c	1e
=60	=60	=60
1G	1B	1g
=61	=61	=61
1E	1B	1g
=62	=62	=62
1F	1A	1d
=63	=63	=63
1E	1B	1e
==	==	==
*-	*-	*-
!!!software: music21 v.9.7.1
!!!software: music21 v.9.7.1
!!!software: MuseScore 3.4.2
!!!RDF**kern: > = above
!!!RDF**kern: < = below
